icons/github-line.svg

<svg viewBox="0 0 24 24" fill="currentColor" xmlns="http://www.w3.org/2000/svg"><path d="M5.88401 18.6533C5.58404 18.4526 5.32587 18.1975 5.0239 17.8369C4.91473 17.7065 4.47283 17.1524 4.55811 17.2583C4.09533 16.6833 3.80296 16.417 3.50156 16.3089C2.9817 16.1225 2.7114 15.5499 2.89784 15.0301C3.08428 14.5102 3.65685 14.2399 4.17672 14.4263C4.92936 14.6963 5.43847 15.1611 6.12425 16.0143C6.03025 15.8974 6.46364 16.441 6.55731 16.5529C6.74784 16.7804 6.88732 16.9182 6.99629 16.9911C7.20118 17.1283 7.58451 17.1874 8.14709 17.1311C8.17065 16.7489 8.24136 16.3783 8.34919 16.0358C5.38097 15.3104 3.70116 13.3952 3.70116 9.63971C3.70116 8.40085 4.0704 7.28393 4.75917 6.3478C4.5415 5.45392 4.57433 4.37284 5.06092 3.15636C5.1725 2.87739 5.40361 2.66338 5.69031 2.57352C5.77242 2.54973 5.81791 2.53915 5.89878 2.52673C6.70167 2.40343 7.83573 2.69705 9.31449 3.62336C10.181 3.41879 11.0885 3.315 12.0012 3.315C12.9129 3.315 13.8196 3.4186 14.6854 3.62277C16.1619 2.69 17.2986 2.39649 18.1072 2.52651C18.1919 2.54013 18.2645 2.55783 18.3249 2.57766C18.6059 2.66991 18.8316 2.88179 18.9414 3.15636C19.4279 4.37256 19.4608 5.45344 19.2433 6.3472C19.9342 7.28337 20.3012 8.39208 20.3012 9.63971C20.3012 13.3968 18.627 15.3048 15.6588 16.032C15.7837 16.447 15.8496 16.9105 15.8496 17.4121C15.8496 18.0765 15.8471 18.711 15.8424 19.4225C15.8412 19.6127 15.8397 19.8159 15.8375 20.1281C16.2129 20.2109 16.5229 20.5077 16.6031 20.9089C16.7114 21.4504 16.3602 21.9773 15.8186 22.0856C14.6794 22.3134 13.8353 21.5538 13.8353 20.5611C13.8353 20.4708 13.836 20.3417 13.8375 20.1145C13.8398 19.8015 13.8412 19.599 13.8425 19.4094C13.8471 18.7019 13.8496 18.0716 13.8496 17.4121C13.8496 16.7148 13.6664 16.2602 13.4237 16.051C12.7627 15.4812 13.0977 14.3973 13.965 14.2999C16.9314 13.9666 18.3012 12.8177 18.3012 9.63971C18.3012 8.68508 17.9893 7.89571 17.3881 7.23559C17.1301 6.95233 17.0567 6.54659 17.199 6.19087C17.3647 5.77663 17.4354 5.23384 17.2941 4.57702L17.2847 4.57968C16.7928 4.71886 16.1744 5.0198 15.4261 5.5285C15.182 5.69438 14.8772 5.74401 14.5932 5.66413C13.7729 5.43343 12.8913 5.315 12.0012 5.315C11.111 5.315 10.2294 5.43343 9.40916 5.66413C9.12662 5.74359 8.82344 5.69492 8.57997 5.53101C7.8274 5.02439 7.2056 4.72379 6.71079 4.58376C6.56735 5.23696 6.63814 5.77782 6.80336 6.19087C6.94565 6.54659 6.87219 6.95233 6.61423 7.23559C6.01715 7.8912 5.70116 8.69376 5.70116 9.63971C5.70116 12.8116 7.07225 13.9683 10.023 14.2999C10.8883 14.3971 11.2246 15.4769 10.5675 16.0482C10.3751 16.2156 10.1384 16.7802 10.1384 17.4121V20.5611C10.1384 21.5474 9.30356 22.2869 8.17878 22.09C7.63476 21.9948 7.27093 21.4766 7.36613 20.9326C7.43827 20.5204 7.75331 20.2116 8.13841 20.1276V19.1381C7.22829 19.1994 6.47656 19.0498 5.88401 18.6533Z"/></svg>

<svg xmlns="http://www.w3.org/2000/svg" viewBox="0 0 24 24">
    <g>
        <path fill="none" d="M0 0h24v24H0z"/>
        <path fill-rule="nonzero" d="M5.883 18.653c-.3-.2-.558-.455-.86-.816a50.32 50.32 0 0 1-.466-.579c-.463-.575-.755-.84-1.057-.949a1 1 0 0 1 .676-1.883c.752.27 1.261.735 1.947 1.588-.094-.117.34.427.433.539.19.227.33.365.44.438.204.137.587.196 1.15.14.023-.382.094-.753.202-1.095C5.38 15.31 3.7 13.396 3.7 9.64c0-1.24.37-2.356 1.058-3.292-.218-.894-.185-1.975.302-3.192a1 1 0 0 1 .63-.582c.081-.024.127-.035.208-.047.803-.123 1.937.17 3.415 1.096A11.731 11.731 0 0 1 12 3.315c.912 0 1.818.104 2.684.308 1.477-.933 2.613-1.226 3.422-1.096.085.013.157.03.218.05a1 1 0 0 1 .616.58c.487 1.216.52 2.297.302 3.19.691.936 1.058 2.045 1.058 3.293 0 3.757-1.674 5.665-4.642 6.392.125.415.19.879.19 1.38a300.492 300.492 0 0 1-.012 2.716 1 1 0 0 1-.019 1.958c-1.139.228-1.983-.532-1.983-1.525l.002-.446.005-.705c.005-.708.007-1.338.007-1.998 0-.697-.183-1.152-.425-1.36-.661-.57-.326-1.655.54-1.752 2.967-.333 4.337-1.482 4.337-4.66 0-.955-.312-1.744-.913-2.404a1 1 0 0 1-.19-1.045c.166-.414.237-.957.096-1.614l-.01.003c-.491.139-1.11.44-1.858.949a1 1 0 0 1-.833.135A9.626 9.626 0 0 0 12 5.315c-.89 0-1.772.119-2.592.35a1 1 0 0 1-.83-.134c-.752-.507-1.374-.807-1.868-.947-.144.653-.073 1.194.092 1.607a1 1 0 0 1-.189 1.045C6.016 7.89 5.7 8.694 5.7 9.64c0 3.172 1.371 4.328 4.322 4.66.865.097 1.201 1.177.544 1.748-.192.168-.429.732-.429 1.364v3.15c0 .986-.835 1.725-1.96 1.528a1 1 0 0 1-.04-1.962v-.99c-.91.061-1.662-.088-2.254-.485z"/>
    </g>
</svg>
